images_elementary_svg/cmd/sc_orientation.svg

<svg height="16" width="16" xmlns="http://www.w3.org/2000/svg" xmlns:xlink="http://www.w3.org/1999/xlink"><linearGradient id="a" gradientTransform="matrix(.2538 0 0 .30502 19.13 -.685)" gradientUnits="userSpaceOnUse" x1="-51.786" x2="-51.786" y1="50.786" y2="2.906"><stop offset="0" stop-opacity=".34"/><stop offset="1" stop-opacity=".247"/></linearGradient><linearGradient id="b" gradientTransform="matrix(.24324 0 0 .35135 2.162 -.432)" gradientUnits="userSpaceOnUse" x1="24" x2="24" y1="6.923" y2="41.077"><stop offset="0" stop-color="#fff"/><stop offset="0" stop-color="#fff" stop-opacity=".235"/><stop offset="1" stop-color="#fff" stop-opacity=".157"/><stop offset="1" stop-color="#fff" stop-opacity=".392"/></linearGradient><linearGradient id="c" gradientTransform="matrix(.2857 0 0 .3042 1.143 .233)" gradientUnits="userSpaceOnUse" x1="25.132" x2="25.132" y1=".985" y2="47.013"><stop offset="0" stop-color="#f4f4f4"/><stop offset="1" stop-color="#dbdbdb"/></linearGradient><linearGradient id="d" gradientTransform="matrix(.5182 0 0 .361 -1079.953 -1160.217)" gradientUnits="userSpaceOnUse" x1="2100.578" x2="2100.578" y1="3215.147" y2="3256.79"><stop offset="0" stop-color="#64baff"/><stop offset="1" stop-color="#3689e6"/></linearGradient><linearGradient id="e" gradientTransform="matrix(.2912 0 0 .323 2.122 -5.26)" gradientUnits="userSpaceOnUse" x1="29.556" x2="26.135" y1="28.447" y2="34.107"><stop offset="0" stop-color="#fff"/><stop offset=".004" stop-color="#fff" stop-opacity=".235"/><stop offset=".539" stop-color="#fff" stop-opacity=".157"/><stop offset="1" stop-color="#fff" stop-opacity=".392"/></linearGradient><linearGradient id="f" gradientTransform="matrix(.494 0 0 .4943 11.832 -6.382)" gradientUnits="userSpaceOnUse" x1="-3.707" x2="-3.707" y1="39.159" y2="23.025"><stop offset="0" stop-color="#fff"/><stop offset=".373" stop-color="#fff" stop-opacity=".235"/><stop offset=".75" stop-color="#fff" stop-opacity=".157"/><stop offset="1" stop-color="#fff" stop-opacity=".392"/></linearGradient><linearGradient id="g" gradientUnits="userSpaceOnUse" x1="8.848872" x2="8.848872" y1="3.921802" y2="14.075938"><stop offset="0" stop-color="#fff"/><stop offset=".5" stop-color="#fff" stop-opacity=".235"/><stop offset=".75" stop-color="#fff" stop-opacity=".157"/><stop offset="1" stop-color="#fff" stop-opacity=".392"/></linearGradient><path d="m3 1h10v14h-10z" fill="url(#c)"/><path d="m12.5 14.5h-9v-13h9z" fill="none" stroke="url(#b)" stroke-linecap="round"/><path d="m2.5.5h11v15h-11z" fill="none" stroke="url(#a)" stroke-linejoin="round"/><g transform="matrix(.63 0 0 .63 6.36 5.71)"><path d="m8.5.5v2.02a6.5 6.5 0 0 0 -.5-.02 6.5 6.5 0 0 0 -6.5 6.5 6.5 6.5 0 0 0 6.5 6.5 6.5 6.5 0 0 0 6.48-6h-3.02a3.5 3.5 0 0 1 -3.46 3 3.5 3.5 0 0 1 -3.5-3.5 3.5 3.5 0 0 1 3.5-3.5 3.5 3.5 0 0 1 .5.04v1.96l5-3.5z" fill="url(#d)" opacity=".99"/><g fill="none"><g stroke-width="1.584"><path d="m8.5.5v2.02a6.5 6.5 0 0 0 -.5-.02 6.5 6.5 0 0 0 -6.5 6.5 6.5 6.5 0 0 0 6.5 6.5 6.5 6.5 0 0 0 6.48-6h-3.02a3.5 3.5 0 0 1 -3.46 3 3.5 3.5 0 0 1 -3.5-3.5 3.5 3.5 0 0 1 3.5-3.5 3.5 3.5 0 0 1 .5.04v1.96l5-3.5z" opacity=".5" stroke="#002e99" stroke-linecap="round" stroke-linejoin="round"/><path d="m9.496 5.578v-3.13l2.222 1.56z" opacity=".5" stroke="url(#e)"/><path d="m12.32 10.176a4.49 4.49 0 0 1 -5.392 3.202 4.49 4.49 0 0 1 -3.33-5.315 4.49 4.49 0 0 1 5.232-3.458" opacity=".5" stroke="url(#f)"/></g><ellipse cx="8" cy="9.212" opacity=".99" rx="4" ry="2.472"/><path d="m13.386 10.154a5.506 5.504 0 0 1 -6.446 4.246 5.506 5.504 0 0 1 -4.357-6.372 5.506 5.504 0 0 1 6.3-4.46" opacity=".5" stroke="url(#g)" stroke-width="1.584"/></g></g></svg>

<svg xmlns="http://www.w3.org/2000/svg" xmlns:xlink="http://www.w3.org/1999/xlink" height="16" width="16"><defs><linearGradient gradientTransform="matrix(.2538 0 0 .30502 19.13 -.685)" gradientUnits="userSpaceOnUse" xlink:href="#a" id="j" y2="2.906" x2="-51.786" y1="50.786" x1="-51.786"/><linearGradient id="a"><stop offset="0" stop-opacity=".34"/><stop offset="1" stop-opacity=".247"/></linearGradient><linearGradient gradientTransform="matrix(.24324 0 0 .35135 2.162 -.432)" gradientUnits="userSpaceOnUse" xlink:href="#b" id="i" y2="41.077" x2="24" y1="6.923" x1="24"/><linearGradient id="b"><stop offset="0" stop-color="#fff"/><stop offset="0" stop-color="#fff" stop-opacity=".235"/><stop offset="1" stop-color="#fff" stop-opacity=".157"/><stop offset="1" stop-color="#fff" stop-opacity=".392"/></linearGradient><linearGradient id="c"><stop offset="0" stop-color="#f4f4f4"/><stop offset="1" stop-color="#dbdbdb"/></linearGradient><linearGradient gradientTransform="matrix(.2857 0 0 .3042 1.143 .233)" gradientUnits="userSpaceOnUse" xlink:href="#c" id="h" y2="47.013" x2="25.132" y1=".985" x1="25.132"/><linearGradient y2="3256.79" x2="2100.578" y1="3215.147" x1="2100.578" gradientTransform="matrix(.5182 0 0 .361 -1079.953 -1160.217)" gradientUnits="userSpaceOnUse" id="k" xlink:href="#d"/><linearGradient id="d"><stop offset="0" stop-color="#64baff"/><stop offset="1" stop-color="#3689e6"/></linearGradient><linearGradient xlink:href="#e" id="l" gradientUnits="userSpaceOnUse" gradientTransform="matrix(.2912 0 0 .323 2.122 -5.26)" x1="29.556" y1="28.447" x2="26.135" y2="34.107"/><linearGradient id="e"><stop offset="0" stop-color="#fff"/><stop offset=".004" stop-color="#fff" stop-opacity=".235"/><stop offset=".539" stop-color="#fff" stop-opacity=".157"/><stop offset="1" stop-color="#fff" stop-opacity=".392"/></linearGradient><linearGradient y2="23.025" x2="-3.707" y1="39.159" x1="-3.707" gradientTransform="matrix(.494 0 0 .4943 11.832 -6.382)" gradientUnits="userSpaceOnUse" id="m" xlink:href="#f"/><linearGradient id="f"><stop offset="0" stop-color="#fff"/><stop offset=".373" stop-color="#fff" stop-opacity=".235"/><stop offset=".75" stop-color="#fff" stop-opacity=".157"/><stop offset="1" stop-color="#fff" stop-opacity=".392"/></linearGradient><linearGradient xlink:href="#g" id="n" gradientUnits="userSpaceOnUse" gradientTransform="matrix(.606 0 0 .606 12.72 -9.875)" x1="-6.388" y1="22.767" x2="-6.388" y2="39.523"/><linearGradient id="g"><stop offset="0" stop-color="#fff"/><stop offset=".5" stop-color="#fff" stop-opacity=".235"/><stop offset=".75" stop-color="#fff" stop-opacity=".157"/><stop offset="1" stop-color="#fff" stop-opacity=".392"/></linearGradient></defs><path d="M3 1h10v14H3V1z" fill="url(#h)"/><path d="M12.5 14.5h-9v-13h9z" fill="none" stroke="url(#i)" stroke-linecap="round"/><path d="M2.5.5h11v15h-11V.5z" fill="none" stroke="url(#j)" stroke-linejoin="round"/><g transform="matrix(.63 0 0 .63 6.36 5.71)"><path d="M8.5.5v2.02A6.5 6.5 0 0 0 8 2.5 6.5 6.5 0 0 0 1.5 9 6.5 6.5 0 0 0 8 15.5a6.5 6.5 0 0 0 6.48-6h-3.02a3.5 3.5 0 0 1-3.46 3A3.5 3.5 0 0 1 4.5 9 3.5 3.5 0 0 1 8 5.5a3.5 3.5 0 0 1 .5.04V7.5l5-3.5z" opacity=".99" fill="url(#k)"/><path d="M8.5.5v2.02A6.5 6.5 0 0 0 8 2.5 6.5 6.5 0 0 0 1.5 9 6.5 6.5 0 0 0 8 15.5a6.5 6.5 0 0 0 6.48-6h-3.02a3.5 3.5 0 0 1-3.46 3A3.5 3.5 0 0 1 4.5 9 3.5 3.5 0 0 1 8 5.5a3.5 3.5 0 0 1 .5.04V7.5l5-3.5z" opacity=".5" fill="none" stroke="#002e99" stroke-width="1.584" stroke-linecap="round" stroke-linejoin="round"/><path overflow="visible" d="M9.496 5.578v-3.13l2.222 1.56z" style="isolation:auto;mix-blend-mode:normal" color="#000" opacity=".5" solid-color="#000000" fill="none" stroke="url(#l)" stroke-width="1.584"/><path d="M12.32 10.176a4.49 4.49 0 0 1-5.392 3.202 4.49 4.49 0 0 1-3.33-5.315A4.49 4.49 0 0 1 8.83 4.605" opacity=".5" fill="none" stroke="url(#m)" stroke-width="1.584"/><ellipse cx="8" cy="9.212" rx="4" ry="2.472" opacity=".99" fill="none"/><path d="M13.386 10.154A5.506 5.504 0 0 1 6.94 14.4a5.506 5.504 0 0 1-4.357-6.372 5.506 5.504 0 0 1 6.3-4.46" opacity=".5" fill="none" stroke="url(#n)" stroke-width="1.584"/></g></svg>
